X:585
T:Pastor (XA 35)
R:Tonada
C:Tradicional
S:Msica Tradicional Asturiana, (C) Tello & Tito. Asturies, 2001.
S:http://pagina.de/MusTradAst <telloytito@asturies.org>
A:Asturies
Z:Mtodu de Xuacu Amieva 35
M:3/8
L:1/8
Q:3/8=80
K:Cm
E
|G2 G|GGA|~G F2-|FGA|B2 ~c|B2 G|~A G2-|G2 E|
|G2 G|GA~G|FEG|EF~D|C3-|CDE|F2 ~G|F2 E|~D C2-|C3|
W:Pastor que tas nel monte
W:y durmes per esas braas
W:si te casaras conmigo, s, s, pastor,
W:durmieras en buena cama.
W:
W:Contesta'l bien del pastor
W:buena cama nun la quiero
W:tengo'l ganu nel monte, s, s, adis,
W:tengo que dime a por ello.
W:
W:Mira que cinta de pelu...,
W:delgadina de cintura,
W:si te casaras conmigo, s, s, pastor,
W:gozaras de mio hermosura.
W:
W:Contesta'l bien del pastor,
W:to hermosura nun la quiero,
W:tengo'l ganu nel monte, s, s, adis,
W:tengo que dime a por ello.
W:
W:Pastor que tas nel monte
W:y durmes ente'l h.elechu
W:si te casaras conmigo, s, s, pastor,
W:durmieras ente'l mio pechu.
W:
W:Contesta'l bien del pastor
W:ente tos pechos nun quiero
W:tengo'l ganu nel monte, s, s, adios,
W:tengo que dime a por ello.
W:
